packages/core/icons/tp-light.svg

<svg viewBox="0 0 24 24">
  <title>light</title>
  <style>
    :host {
      --stroke: var(--tp-color-neutral-10);
      --stroke-width: 2;
    }

    :host {
      font-size: 24px;
      stroke: inherit;
    }

    :host path {
      stroke: var(--stroke);
      stroke-width: var(--stroke-width);
      fill: none;
      stroke-linecap: round;
      stroke-linejoin: round;
    }

    :host(.ion-color) path {
      --stroke: var(--ion-color-base) !important;
    }

    :host([tp-size='sm']) {
      /* --stroke-width: 1.5; */
      font-size: 16px;
    }

    :host([tp-size='md']) {
      /* --stroke-width: 3; */
      font-size: 32px;
    }

    :host([tp-size='lg']) {
      /* --stroke-width: 4; */
      font-size: 48px;
    }
  </style>
  <path d="M12 1v2M4.22 4.22l1.42 1.42M18.36 18.36l1.42 1.42M1 12h2M10 23h4M21 12h2M4.22 19.78l1.42-1.42M18.36 5.64l1.42-1.42M10 19c0-4-3-3-3-7 0-2.761 2.239-5 5-5s5 2.239 5 5c0 4-3 3-3 7h-4z"></path>
</svg>

<svg viewBox="0 0 24 24">
  <title>light</title>
  <style>
    :host {
      --stroke: var(--tp-color-neutral-10);
      --stroke-width: 2;
    }

    :host {
      font-size: 24px;
      stroke: inherit;
    }

    :host path {
      stroke: var(--stroke);
      stroke-width: var(--stroke-width);
      fill: none;
      stroke-linecap: round;
      stroke-linejoin: round;
    }

    :host(.ion-color) path {
      --stroke: var(--ion-color-base) !important;
    }

    :host([tp-size='sm']) {
      /* --stroke-width: 1.5; */
      font-size: 16px;
    }

    :host([tp-size='md']) {
      /* --stroke-width: 3; */
      font-size: 32px;
    }

    :host([tp-size='lg']) {
      /* --stroke-width: 4; */
      font-size: 48px;
    }
  </style>
  <g clip-path="url(#clip0_5000_49181)">
    <path d="M12 1V3M4.22 4.22L5.64 5.64M18.36 18.36L19.78 19.78M1 12H3M10 23H14M21 12H23M4.22 19.78L5.64 18.36M18.36 5.64L19.78 4.22M10 19C10 15 7 16 7 12C7 9.23858 9.23858 7 12 7C14.7614 7 17 9.23858 17 12C17 16 14 15 14 19H10Z"/>
  </g>
  <defs>
    <clipPath id="clip0_5000_49181">
      <rect/>
    </clipPath>
  </defs>
</svg>
